docs/.gitbook/assets/icon-command-symbol-16@dark.svg

<svg width="32" height="32" viewBox="0 0 16 16" fill="none" xmlns="http://www.w3.org/2000/svg">
<rect x="0" y="0" width="16" height="16" fill="#181c1f"/>
<path fill-rule="evenodd" clip-rule="evenodd" d="M1.00702 3.82494C1.00702 2.26868 2.26862 1.00708 3.82487 1.00708C5.38113 1.00708 6.64273 2.26868 6.64273 3.82494V5.35708H9.35702V3.82494C9.35702 2.26868 10.6186 1.00708 12.1749 1.00708C13.7311 1.00708 14.9927 2.26868 14.9927 3.82494C14.9927 5.3812 13.7311 6.64279 12.1749 6.64279H10.6427V9.35708H12.1749C13.7311 9.35708 14.9927 10.6187 14.9927 12.1749C14.9927 13.7312 13.7311 14.9928 12.1749 14.9928C10.6186 14.9928 9.35702 13.7312 9.35702 12.1749V10.6428H6.64273V12.1749C6.64273 13.7312 5.38113 14.9928 3.82487 14.9928C2.26862 14.9928 1.00702 13.7312 1.00702 12.1749C1.00702 10.6187 2.26862 9.35708 3.82488 9.35708H5.35702V6.64279H3.82488C2.26862 6.64279 1.00702 5.3812 1.00702 3.82494ZM5.35702 5.35708V3.82494C5.35702 2.97876 4.67105 2.29279 3.82487 2.29279C2.9787 2.29279 2.29273 2.97876 2.29273 3.82494C2.29273 4.67112 2.9787 5.35708 3.82488 5.35708H5.35702ZM6.64273 6.64279V9.35708H9.35702V6.64279H6.64273ZM5.35702 10.6428H3.82488C2.9787 10.6428 2.29273 11.3288 2.29273 12.1749C2.29273 13.0211 2.9787 13.7071 3.82487 13.7071C4.67105 13.7071 5.35702 13.0211 5.35702 12.1749V10.6428ZM10.6427 10.6428V12.1749C10.6427 13.0211 11.3287 13.7071 12.1749 13.7071C13.0211 13.7071 13.707 13.0211 13.707 12.1749C13.707 11.3288 13.0211 10.6428 12.1749 10.6428H10.6427ZM10.6427 5.35708H12.1749C13.0211 5.35708 13.707 4.67112 13.707 3.82494C13.707 2.97876 13.0211 2.29279 12.1749 2.29279C11.3287 2.29279 10.6427 2.97876 10.6427 3.82494V5.35708Z" fill="#fff"/>
</svg>

<svg xmlns="http://www.w3.org/2000/svg" width="32" height="32" fill="none" viewBox="0 0 16 16"><path fill="#181c1f" d="M0 0h16v16H0z"/><path fill="#fff" fill-rule="evenodd" d="M1.007 3.825a2.818 2.818 0 1 1 5.636 0v1.532h2.714V3.825a2.818 2.818 0 1 1 2.818 2.818h-1.532v2.714h1.532a2.818 2.818 0 1 1-2.818 2.818v-1.532H6.643v1.532a2.818 2.818 0 1 1-2.818-2.818h1.532V6.643H3.825a2.82 2.82 0 0 1-2.818-2.818m4.35 1.532V3.825a1.532 1.532 0 1 0-1.532 1.532zm1.286 1.286v2.714h2.714V6.643zm-1.286 4H3.825a1.532 1.532 0 1 0 1.532 1.532zm5.286 0v1.532a1.532 1.532 0 1 0 1.532-1.532zm0-5.286h1.532a1.532 1.532 0 1 0-1.532-1.532z" clip-rule="evenodd"/></svg>
